X:1
T:Title
%%score { ( 1 3 ) | ( 2 4 ) }
L:1/8
Q:1/4=100
M:4/4
K:Bb
V:1 treble nm="Grand Piano"
V:3 treble 
V:2 bass 
V:4 bass 
V:1
 G2 G2 G2 ^FG | c2 B2 [EB] [D_A]3 | [DF]2 [EG]2 [F_A]2 [GB][Ac] | [GB]2 [B,F_A]2 G4 | %4
w: B.~D.~Ackley * * * *||||
 G2 G2 G2 ^FG | c2 B2 [DB] [DF]3 | F2 G2 A2 Bc | d2 c2 z2 _A,2 | c2 B2 G2 ^FG | c2 B2 [EB] [D_A]3 | %10
w: ||||||
 [_Ad]3 [Ac] [GB]2 [FA][DF] | z2 [^Fc]2 z4 | [_Ac]2 [GB]2 G2 ^FG | c2 B2 [EB] [D_A]3 | %14
w: ||||
 [Fd]3[Q:1/4=88] [Ec] [DB][D_A][Q:1/4=76] [DF]<[DB][Q:1/4=99][Q:1/4=97][Q:1/4=96][Q:1/4=94][Q:1/4=93][Q:1/4=91][Q:1/4=90][Q:1/4=87][Q:1/4=85][Q:1/4=84][Q:1/4=82][Q:1/4=81][Q:1/4=79][Q:1/4=78] | %15
w: |
 [B,E]6 z2 |] %16
w: |
V:2
 [E,B,E]2 [E,B,E]2 [E,B,E]2 [E,A,E][E,B,E] | [E,_A,E]2 [E,G,E]2 [B,,G,] [B,,F,]3 | %2
 [B,,B,]2 [B,,B,]2 [B,,B,]2 [B,,B,][B,,B,] | [B,,B,]2 C,D, [E,B,E]4 | %4
 [E,B,E]2 [E,B,E]2 [E,B,E]2 [E,A,E][E,B,E] | [E,_A,E]2 [E,G,E]2 [B,,F,] [B,,B,]3 | %6
 [F,A,E]2 [F,B,E]2 [F,CE]2 [F,G,E][F,A,E] | [F,B,F]2 [F,A,E]2 B,2 z2 | %8
 [E,G,E]2 [E,G,E]2 [E,B,E]2 [E,A,E][E,B,E] | [E,_A,E]2 [E,G,E]2 [B,,G,] [B,,F,]3 | %10
 [B,,B,]3 [B,,B,] [B,,B,]2 [B,,B,][B,,B,] | [E,B,]2 .[E,A,]2 [E,E]4 | %12
 [E,E]2 [E,E]2 [E,B,E]2 [E,A,E][E,B,E] | [E,_A,E]2 [E,G,E]2 [B,,G,] [B,,F,]3 | %14
 [B,,B,]3 [B,,F,] [B,,F,][B,,F,] [B,,B,]<[B,,_A,] | [E,G,]6 z2 |] %16
V:3
 x8 | x8 | x8 | x8 | x8 | x8 | x8 | z4 [DB]4 | x8 | x8 | x8 | [EG]2 z C [GB]4 | x8 | x8 | x8 | %15
 x8 |] %16
V:4
 x8 | x8 | x8 | x8 | x8 | x8 | x8 | z4 B,,4 | x8 | x8 | x8 | x8 | x8 | x8 | x8 | x8 |] %16

